**kern
*staff3
=1-
*clefF4
*k[b-e-a-]
*met(c)
*M4/4
1EE-/ 1BB-/ 1E-/
=2
1EE-/ 1BB-/ 1E-/
=3
1BBB-/ 1BB-/
=4
!!linebreak:original
1EE-/ 1BB-/ 1E-/
=5
2EE-/ 2E-/
4DD/ 4D/
4BBB-/ 4BB-/
=6
[2EE-/ [2E-/
4EE-/] 4E-/]
4DD/ 4D/
=7
!!linebreak:original
2CC/ 2C/
2GGG/ 2EE-/ 2GG/
=8
2.CC/ 2.C/
4EE-/ 4E-/
=9
1FF/ 1C/ 1F/
=10
!!linebreak:original
1BB-/
=11
1BBB-/ 1BB-/
=12
1EE-/ 1E-/
=13
!!linebreak:original
1EE-/ 1E-/
=14
1EE-/ 1E-/
=15
1BBB-/ 1BB-/
=16
!!linebreak:original
1EE-/ 1E-/
=17
2AA-/
4BB-/
4BBB-/
=18
2EE-/ 2E-/
2DD/ 2D/
=19
!!linebreak:original
2CC/ 2EE-/ 2C/
2AA-\ 2A-\
=20
4GG/ 4G/
8r
8FF/ 8F/
4EE-/ 4E-/
4r
=21
[2AAA-/ [2FF/ [2AA-/
2AAA-/] 2AA-/]
=22
!!linebreak:original
[2BBB-/ [2DD/ [2BB-/
2BBB-/] 2BB-/]
=23
4EE-/ 4G/ 4e-/
4C/
4EE-/ 4G/ 4e-/
4r
=24||
!!linebreak:original
*^
4CC/	8r
*v	*v
4C/
4BB-/
4AA-/
=25
2GG/
2FF/]
=26
2GG/
2GGG/
=27
!!linebreak:original
2CC/
4C/
4BB-/
=28
4AA-/
4FF/
4GG/
4G\
=29
4C/
4r
4r
4r
=30
!!linebreak:original
4BB-/
4r
2r
=31
2AA-/
2BB-/
=32
4C/
4D-\
4C/
4CC/
=33
!!linebreak:original
4FF/
4r
2r
=34
2A-\
2AA-/
=35
2GG/
2AA-/
=36
!!linebreak:original
2BB-/
2BB-/
=37
2EE-/
2r
=38||
[2AAA-/ [2FF/
2AAA-/] 2FF/]
=39
!!linebreak:original
1AA-/
=40
4BB-/
4AA-/
4GG/
4FF/
=41
2CC/ 2FF/
4r
4r
=42
!!linebreak:original
2C/
2D-\
=43
1E-/
=44
1EE-/
=45
!!linebreak:original
1AA-/
=46
1A-/
=47
1D-/
=48
!!linebreak:original
1BB-/
=49
4E-\
4D-\
4C/
4D-\
=50
2E-\
2EE-/
=51
!!linebreak:original
1AAA-/ 1AA-/
=52
1BBB-/ 1BB-/
=53
1EE-/ 1E-/
=54
!!linebreak:original
2EE-/ 2E-/
2BBB-/ 2DD/] 2BB-/
=55
1EE-/ 1E-/
=56
2EE-/ 2E-/
4DD/ 4D/
4BBB-/ 4BB-/
=57
!!linebreak:original
1EE-/ 1E-/
=58
[1CC'/ [1C'/
=59
1CC/] 1C/]
=60
!!linebreak:original
1AA-/ 1A-/
=61
1GG/ 1G/
=62
1EE-/ 1E-/
=63
!!linebreak:original
1AAA-/ 1AA-/
=64
1BBB-/ 1BB-/
=65
1BBB-/ 1BB-/
=66
!!linebreak:original
[1EE-/ [1E-/
=67
1EE-'/] 1E-'/]
=68
4EE-/
4r
4E-\
4r
=69
1EE-/
==
*-
